svg/fluentui-system-icons/ic_fluent_window_multiple_20_filled.svg

<svg width="20" height="20" viewBox="0 0 20 20" fill="none" xmlns="http://www.w3.org/2000/svg">
<path d="M4.5 2C3.11929 2 2 3.11929 2 4.5V12.5C2 13.8807 3.11929 15 4.5 15H12.5C13.8807 15 15 13.8807 15 12.5V4.5C15 3.11929 13.8807 2 12.5 2H4.5ZM3 12.5V6H14V12.5C14 13.3284 13.3284 14 12.5 14H4.5C3.67157 14 3 13.3284 3 12.5ZM7.4998 18C6.29032 18 5.28144 17.1411 5.0498 16H6.08515C6.29107 16.5826 6.84669 17 7.4998 17H13.9998C15.6566 17 16.9998 15.6569 16.9998 14V7.50001C16.9998 6.8469 16.5824 6.29128 15.9998 6.08536V5.05002C17.1409 5.28165 17.9998 6.29053 17.9998 7.50001V14C17.9998 16.2091 16.2089 18 13.9998 18H7.4998Z" fill="#212121"/>
</svg>

<svg xmlns="http://www.w3.org/2000/svg" width="20" height="20"><path d="M4.5 2A2.5 2.5 0 0 0 2 4.5v8A2.5 2.5 0 0 0 4.5 15h8a2.5 2.5 0 0 0 2.5-2.5v-8A2.5 2.5 0 0 0 12.5 2h-8ZM3 12.5V6h11v6.5a1.5 1.5 0 0 1-1.5 1.5h-8A1.5 1.5 0 0 1 3 12.5ZM7.5 18a2.5 2.5 0 0 1-2.45-2h1.035A1.5 1.5 0 0 0 7.5 17H14a3 3 0 0 0 3-3V7.5a1.5 1.5 0 0 0-1-1.415V5.05a2.5 2.5 0 0 1 2 2.45V14a4 4 0 0 1-4 4H7.5Z"/></svg>
